X:1
T: balls
C: lsv12
M:4/4
K: C
Q:120
V:1
%%MIDI program 12
|:A,3C1 A3c1 |E3e1 A2C2 :|
|:A,3C1 A3c1 |E3e1 A2C2 :|
V:2
%%MIDI program 12
|:c4a1 C3A,1 |d2D2 b1E2 :|
|:c4a1 C3A,1 |d2D2 b1E2 :|
V:3 clef=bass-8
%%MIDI program 34
|:F2DF2 DF2|C2F2 F2E2:|
|:F2DF2 DF2|C2F2 F2E2:|
